fs/heart_pulse_20_regular.svg

<svg viewBox="0 0 20 20" fill="none" xmlns="http://www.w3.org/2000/svg" height="1em" width="1em">
  <path d="M10.4965 16.8028L15.2543 12H14.25C14.1275 12 14.0068 11.985 13.8901 11.9562L10.0252 15.8577L6.16208 11.9557C6.04531 11.9848 5.92389 12 5.8 12H4.79874L9.55368 16.8028C9.81404 17.0657 10.2362 17.0657 10.4965 16.8028ZM16.7239 4.31249C17.9856 5.58687 18.3116 7.44242 17.7023 9.01353C17.6361 9.00461 17.5686 9 17.5 9H16.6113C17.2826 7.72238 17.0851 6.09863 16.0133 5.01605C14.7025 3.69204 12.5964 3.69135 11.3 5.00029L10.349 5.96272C10.1534 6.16067 9.8338 6.16082 9.63801 5.96306L8.6778 4.99319C7.36984 3.67208 5.26525 3.67106 3.97186 4.97746C2.89923 6.06088 2.71314 7.71093 3.4203 9H2.5C2.4393 9 2.37944 9.00361 2.32062 9.01062C1.68337 7.42933 1.99562 5.55224 3.26122 4.2739C4.91654 2.60193 7.58595 2.57726 9.28783 4.19116C9.32175 4.22334 9.35529 4.25616 9.38843 4.28963L9.99299 4.90026L10.5894 4.29673C10.6251 4.26068 10.6612 4.22539 10.6978 4.19086C12.3961 2.5895 15.0611 2.63292 16.7239 4.31249ZM7.96154 6.30769C7.88415 6.12196 7.70298 6.00072 7.50177 6C7.30056 5.99929 7.11853 6.11925 7.03983 6.30443L5.46922 10H2.5C2.22386 10 2 10.2239 2 10.5C2 10.7761 2.22386 11 2.5 11H5.8C6.00056 11 6.18172 10.8802 6.26017 10.6956L7.49544 7.78905L9.53846 12.6923C9.6104 12.865 9.77268 12.983 9.95909 12.9983C10.1455 13.0136 10.3249 12.9236 10.424 12.765L12.5671 9.33601L13.8737 10.8293C13.9687 10.9378 14.1058 11 14.25 11H17.5C17.7761 11 18 10.7761 18 10.5C18 10.2239 17.7761 10 17.5 10H14.4769L12.8763 8.17075C12.7721 8.05167 12.6177 7.98894 12.46 8.0016C12.3023 8.01427 12.1599 8.10083 12.076 8.235L10.0892 11.414L7.96154 6.30769Z" fill="#212121"/>
</svg>

<svg viewBox="0 0 20 20" fill="none" xmlns="http://www.w3.org/2000/svg" height="1em" width="1em">
  <path d="M10.496 16.803 15.255 12H14.25c-.123 0-.243-.015-.36-.044l-3.865 3.902-3.863-3.902A1.501 1.501 0 0 1 5.8 12H4.799l4.755 4.803c.26.263.682.263.942 0Zm6.228-12.49a4.416 4.416 0 0 1 .978 4.7A1.514 1.514 0 0 0 17.5 9h-.889a3.415 3.415 0 0 0-.598-3.984A3.306 3.306 0 0 0 11.3 5l-.951.963a.5.5 0 0 1-.711 0l-.96-.97a3.302 3.302 0 0 0-4.706-.016C2.899 6.061 2.713 7.711 3.42 9H2.5c-.06 0-.12.004-.18.01a4.398 4.398 0 0 1 .941-4.736 4.301 4.301 0 0 1 6.127.016l.605.61.596-.603a4.306 4.306 0 0 1 6.135.016ZM7.962 6.307a.5.5 0 0 0-.922-.004L5.47 10H2.5a.5.5 0 0 0 0 1h3.3a.5.5 0 0 0 .46-.304l1.235-2.907 2.043 4.903a.5.5 0 0 0 .886.073l2.143-3.429 1.307 1.493a.5.5 0 0 0 .376.171h3.25a.5.5 0 0 0 0-1h-3.023l-1.6-1.83a.5.5 0 0 0-.801.065l-1.987 3.179-2.127-5.106Z" fill="#212121"/>
</svg>
